public/icons/sparkle/bluestone-logo.svg

<svg width="57" height="11" xmlns="http://www.w3.org/2000/svg"><g clip-path="url(#a)"><clipPath id="a"><path d="M.4.1h56.25v10.6H.4z"/></clipPath><path fill="#FFF" d="M14.46 5.79c-.06 0-.13.01-.2.02-.17.02-.35.04-.53.04h-.69V3.59h.36c.59 0 1.05.04 1.39.22.35.2.57.55.57.94 0 .6-.52 1.01-.9 1.04zm-.02-3.15c-.23.15-.56.22-1.05.22h-.35V1h.75c.67 0 1.06.31 1.06.84 0 .32-.15.63-.41.8zm.48.48c.46-.29.71-.74.71-1.28 0-.99-.74-1.57-1.96-1.57h-1.38v6.31h1.77c.62 0 1.15-.19 1.54-.56.34-.33.53-.79.53-1.28 0-.76-.4-1.3-1.21-1.62zm0 0M17.81.27h-.75v6.31h3.12v-.73h-2.37V.27zm0 0M24.55 4.26c0 .48 0 .89-.32 1.28-.25.31-.59.46-1.05.46-.46 0-.8-.15-1.05-.46-.32-.39-.32-.8-.32-1.28V.27h-.74v4.08c0 1.47.81 2.39 2.11 2.39 1.3 0 2.11-.92 2.11-2.39V.27h-.74v3.99zm0 0M26.69 6.58h3.66v-.73h-2.91V3.54h2.91v-.73h-2.91V1h2.91V.27h-3.66v6.31zm0 0M32.65 2.59l-.12-.09c-.33-.25-.52-.58-.52-.9 0-.36.26-.73.77-.73.49 0 .77.32 1.09.74l.04.05.59-.47-.03-.05C34.07.61 33.6.11 32.8.11c-.89 0-1.57.65-1.57 1.51 0 .47.24.99.55 1.24.21.17.41.32.58.46.99.79 1.44 1.15 1.44 1.7s-.47.98-1.08.98c-.46 0-.88-.34-1.24-.99l-.03-.06-.63.39.03.05c.5.93 1.1 1.35 1.92 1.35 1 0 1.81-.78 1.81-1.73 0-1-.81-1.59-1.93-2.42zm0 0M35.16 1h1.39v5.58h.75V1h1.38V.27h-3.52V1zm0 0M44.88 3.41c0 1.48-1.11 2.59-2.57 2.59a2.52 2.52 0 01-2.54-2.55A2.55 2.55 0 0142.31.84c1.26 0 2.57.96 2.57 2.57zm-2.6-3.3C40.44.11 39 1.58 39 3.45c0 1.84 1.46 3.28 3.33 3.28 1.86 0 3.32-1.45 3.32-3.31 0-1.89-1.45-3.31-3.37-3.31zm0 0M50.83 4.9L46.84.29l-.02-.02h-.22v6.31h.75V2.01l4 4.57h.23V.27h-.75V4.9zm0 0M56.63 1V.27h-3.66v6.31h3.66v-.73h-2.92V3.54h2.92v-.73h-2.92V1h2.92zm0 0M.86 8.87v.67h.33c.17 0 .3-.01.39-.08.07-.06.11-.16.11-.26s-.04-.2-.12-.26c-.09-.06-.21-.07-.36-.07H.86zm-.2-.19h.46c.21 0 .36.01.46.04.2.08.32.26.32.48 0 .19-.09.34-.23.43-.14.09-.34.1-.61.1h-.2v.92h-.2V8.68zm0 0M7.07 8.87v.67h.32c.17 0 .31-.02.39-.08.07-.06.12-.16.12-.26 0-.19-.13-.33-.43-.33h-.4zm-.2-.19h.45c.21 0 .37.01.46.04.2.08.33.26.33.48 0 .1-.02.16-.06.25-.1.2-.3.28-.63.28l.71.92h-.24l-.71-.92h-.11v.92h-.2V8.68zm0 0M13.21 9.67c0 .49.39.84.84.84.46 0 .83-.36.83-.85 0-.5-.4-.84-.83-.84-.44 0-.84.34-.84.85zm1.88-.01c0 .58-.45 1.04-1.04 1.04-.61 0-1.04-.48-1.04-1.03 0-.59.45-1.04 1.02-1.04.6 0 1.06.44 1.06 1.03zm0 0M20.25 8.87v.67h.32c.17 0 .31-.01.39-.08.07-.06.12-.16.12-.26s-.05-.2-.12-.26c-.09-.06-.21-.07-.36-.07h-.35zm-.2-.19h.46c.2 0 .36.01.45.04.2.08.33.26.33.48 0 .19-.09.34-.23.43-.14.09-.35.1-.62.1h-.19v.92h-.2V8.68zm0 0M26.25 8.68h1.12v.19h-.93v.62h.93v.19h-.93v.78h.93v.19h-1.12V8.68zm0 0M32.49 8.87v.67h.33c.17 0 .3-.02.39-.08.07-.06.11-.16.11-.26 0-.19-.13-.33-.42-.33h-.41zm-.2-.19h.46c.2 0 .36.01.46.04.2.08.32.26.32.48 0 .1-.01.16-.06.25-.1.2-.3.28-.62.28l.71.92h-.25l-.71-.92h-.11v.92h-.2V8.68zm0 0M38.34 8.87v-.19h1.08v.19h-.44v1.78h-.2V8.87h-.44zm0 0M44.24 8.68h.2v1.97h-.2V8.68zm0 0M49.46 8.68h1.13v.19h-.93v.62h.93v.19h-.93v.78h.93v.19h-1.13V8.68zm0 0M56.26 9.07c-.11-.14-.2-.24-.37-.24-.17 0-.26.12-.26.25 0 .11.06.22.17.3.38.28.65.47.65.79 0 .28-.24.53-.56.53-.27 0-.45-.15-.59-.42l.16-.1c.12.22.26.33.42.33.2 0 .36-.15.36-.34 0-.22-.2-.34-.65-.7a.541.541 0 01-.17-.38c0-.27.21-.46.48-.46.24 0 .39.14.52.32l-.16.12zm0 0M1 6.17H.38V1.9L1 1.52v4.65zm0 0M4.53 6.53h.62V.41l-.62.4v5.72zm0 0"/><path fill="#FFF" d="M.37 6.52H1v-3.8H.37v3.8zm0 0"/><path fill="#FFF" d="M.4 3.44v.62l4.73-3.01V.42L.4 3.44zm0 0M.4 5.89v.63l4.73.01v-.62L.4 5.89zm0 0M6.51 6.53h-.63V.41l.63.4v5.72zm0 0M10.66 6.52h-.62V3.46h.62v3.06zm0 0"/><path fill="#FFF" d="M10.64 3.44v.62L5.91 1.05V.42l4.73 3.02zm0 0M10.64 5.89l.02.63-4.73.01-.02-.62 4.73-.02zm0 0"/><path fill="#FFF" d="M6.5 7.6h-.63V3.46h.63V7.6zm0 0"/></g></svg>

<svg width="57px" height="11px" viewBox="0 0 57 11" version="1.1" xmlns="http://www.w3.org/2000/svg" xmlns:xlink="http://www.w3.org/1999/xlink">
    <g id="bluestoneWhiteLogo-logo" clip-path="url(#bluestoneWhiteLogo-clip)">
        <clipPath id="bluestoneWhiteLogo-clip">
            <rect x="0.4" y="0.1" width="56.25" height="10.6" />
        </clipPath>
        <path id="bluestoneWhiteLogo-bezier" stroke="none" fill="rgb(255, 255, 255)" d="M 14.46,5.79 C 14.4,5.79 14.33,5.8 14.26,5.81 14.09,5.83 13.91,5.85 13.73,5.85 L 13.04,5.85 13.04,3.59 13.4,3.59 C 13.99,3.59 14.45,3.63 14.79,3.81 15.14,4.01 15.36,4.36 15.36,4.75 15.36,5.35 14.84,5.76 14.46,5.79 Z M 14.44,2.64 C 14.21,2.79 13.88,2.86 13.39,2.86 L 13.04,2.86 13.04,1 13.79,1 C 14.46,1 14.85,1.31 14.85,1.84 14.85,2.16 14.7,2.47 14.44,2.64 Z M 14.92,3.12 C 15.38,2.83 15.63,2.38 15.63,1.84 15.63,0.85 14.89,0.27 13.67,0.27 L 12.29,0.27 12.29,6.58 14.06,6.58 C 14.68,6.58 15.21,6.39 15.6,6.02 15.94,5.69 16.13,5.23 16.13,4.74 16.13,3.98 15.73,3.44 14.92,3.12 Z M 14.92,3.12" />
        <path id="bluestoneWhiteLogo-bezier2" stroke="none" fill="rgb(255, 255, 255)" d="M 17.81,0.27 L 17.06,0.27 17.06,6.58 20.18,6.58 20.18,5.85 17.81,5.85 17.81,0.27 Z M 17.81,0.27" />
        <path id="bluestoneWhiteLogo-bezier3" stroke="none" fill="rgb(255, 255, 255)" d="M 24.55,4.26 C 24.55,4.74 24.55,5.15 24.23,5.54 23.98,5.85 23.64,6 23.18,6 22.72,6 22.38,5.85 22.13,5.54 21.81,5.15 21.81,4.74 21.81,4.26 L 21.81,0.27 21.07,0.27 21.07,4.35 C 21.07,5.82 21.88,6.74 23.18,6.74 24.48,6.74 25.29,5.82 25.29,4.35 L 25.29,0.27 24.55,0.27 24.55,4.26 Z M 24.55,4.26" />
        <path id="bluestoneWhiteLogo-bezier4" stroke="none" fill="rgb(255, 255, 255)" d="M 26.69,6.58 L 30.35,6.58 30.35,5.85 27.44,5.85 27.44,3.54 30.35,3.54 30.35,2.81 27.44,2.81 27.44,1 30.35,1 30.35,0.27 26.69,0.27 26.69,6.58 Z M 26.69,6.58" />
        <path id="bluestoneWhiteLogo-bezier5" stroke="none" fill="rgb(255, 255, 255)" d="M 32.65,2.59 L 32.53,2.5 C 32.2,2.25 32.01,1.92 32.01,1.6 32.01,1.24 32.27,0.87 32.78,0.87 33.27,0.87 33.55,1.19 33.87,1.61 L 33.91,1.66 34.5,1.19 34.47,1.14 C 34.07,0.61 33.6,0.11 32.8,0.11 31.91,0.11 31.23,0.76 31.23,1.62 31.23,2.09 31.47,2.61 31.78,2.86 31.99,3.03 32.19,3.18 32.36,3.32 33.35,4.11 33.8,4.47 33.8,5.02 33.8,5.57 33.33,6 32.72,6 32.26,6 31.84,5.66 31.48,5.01 L 31.45,4.95 30.82,5.34 30.85,5.39 C 31.35,6.32 31.95,6.74 32.77,6.74 33.77,6.74 34.58,5.96 34.58,5.01 34.58,4.01 33.77,3.42 32.65,2.59 Z M 32.65,2.59" />
        <path id="bluestoneWhiteLogo-bezier6" stroke="none" fill="rgb(255, 255, 255)" d="M 35.16,1 L 36.55,1 36.55,6.58 37.3,6.58 37.3,1 38.68,1 38.68,0.27 35.16,0.27 35.16,1 Z M 35.16,1" />
        <path id="bluestoneWhiteLogo-bezier7" stroke="none" fill="rgb(255, 255, 255)" d="M 44.88,3.41 C 44.88,4.89 43.77,6 42.31,6 40.89,6 39.77,4.88 39.77,3.45 39.77,1.82 41.06,0.84 42.31,0.84 43.57,0.84 44.88,1.8 44.88,3.41 Z M 42.28,0.11 C 40.44,0.11 39,1.58 39,3.45 39,5.29 40.46,6.73 42.33,6.73 44.19,6.73 45.65,5.28 45.65,3.42 45.65,1.53 44.2,0.11 42.28,0.11 Z M 42.28,0.11" />
        <path id="bluestoneWhiteLogo-bezier8" stroke="none" fill="rgb(255, 255, 255)" d="M 50.83,4.9 L 46.84,0.29 46.82,0.27 46.6,0.27 46.6,6.58 47.35,6.58 47.35,2.01 51.35,6.58 51.58,6.58 51.58,0.27 50.83,0.27 50.83,4.9 Z M 50.83,4.9" />
        <path id="bluestoneWhiteLogo-bezier9" stroke="none" fill="rgb(255, 255, 255)" d="M 56.63,1 L 56.63,0.27 52.97,0.27 52.97,6.58 56.63,6.58 56.63,5.85 53.71,5.85 53.71,3.54 56.63,3.54 56.63,2.81 53.71,2.81 53.71,1 56.63,1 Z M 56.63,1" />
        <path id="bluestoneWhiteLogo-bezier10" stroke="none" fill="rgb(255, 255, 255)" d="M 0.86,8.87 L 0.86,9.54 C 0.97,9.54 1.09,9.54 1.19,9.54 1.36,9.54 1.49,9.53 1.58,9.46 1.65,9.4 1.69,9.3 1.69,9.2 1.69,9.1 1.65,9 1.57,8.94 1.48,8.88 1.36,8.87 1.21,8.87 L 0.86,8.87 Z M 0.66,8.68 L 1.12,8.68 C 1.33,8.68 1.48,8.69 1.58,8.72 1.78,8.8 1.9,8.98 1.9,9.2 1.9,9.39 1.81,9.54 1.67,9.63 1.53,9.72 1.33,9.73 1.06,9.73 L 0.86,9.73 0.86,10.65 0.66,10.65 0.66,8.68 Z M 0.66,8.68" />
        <path id="bluestoneWhiteLogo-bezier11" stroke="none" fill="rgb(255, 255, 255)" d="M 7.07,8.87 L 7.07,9.54 C 7.18,9.54 7.29,9.54 7.39,9.54 7.56,9.54 7.7,9.52 7.78,9.46 7.85,9.4 7.9,9.3 7.9,9.2 7.9,9.01 7.77,8.87 7.47,8.87 L 7.07,8.87 Z M 6.87,8.68 L 7.32,8.68 C 7.53,8.68 7.69,8.69 7.78,8.72 7.98,8.8 8.11,8.98 8.11,9.2 8.11,9.3 8.09,9.36 8.05,9.45 7.95,9.65 7.75,9.73 7.42,9.73 L 8.13,10.65 7.89,10.65 7.18,9.73 7.07,9.73 7.07,10.65 6.87,10.65 6.87,8.68 Z M 6.87,8.68" />
        <path id="bluestoneWhiteLogo-bezier12" stroke="none" fill="rgb(255, 255, 255)" d="M 13.21,9.67 C 13.21,10.16 13.6,10.51 14.05,10.51 14.51,10.51 14.88,10.15 14.88,9.66 14.88,9.16 14.48,8.82 14.05,8.82 13.61,8.82 13.21,9.16 13.21,9.67 Z M 15.09,9.66 C 15.09,10.24 14.64,10.7 14.05,10.7 13.44,10.7 13.01,10.22 13.01,9.67 13.01,9.08 13.46,8.63 14.03,8.63 14.63,8.63 15.09,9.07 15.09,9.66 Z M 15.09,9.66" />
        <path id="bluestoneWhiteLogo-bezier13" stroke="none" fill="rgb(255, 255, 255)" d="M 20.25,8.87 L 20.25,9.54 C 20.36,9.54 20.47,9.54 20.57,9.54 20.74,9.54 20.88,9.53 20.96,9.46 21.03,9.4 21.08,9.3 21.08,9.2 21.08,9.1 21.03,9 20.96,8.94 20.87,8.88 20.75,8.87 20.6,8.87 L 20.25,8.87 Z M 20.05,8.68 L 20.51,8.68 C 20.71,8.68 20.87,8.69 20.96,8.72 21.16,8.8 21.29,8.98 21.29,9.2 21.29,9.39 21.2,9.54 21.06,9.63 20.92,9.72 20.71,9.73 20.44,9.73 L 20.25,9.73 20.25,10.65 20.05,10.65 20.05,8.68 Z M 20.05,8.68" />
        <path id="bluestoneWhiteLogo-bezier14" stroke="none" fill="rgb(255, 255, 255)" d="M 26.25,8.68 L 27.37,8.68 27.37,8.87 26.44,8.87 26.44,9.49 27.37,9.49 27.37,9.68 26.44,9.68 26.44,10.46 27.37,10.46 27.37,10.65 26.25,10.65 26.25,8.68 Z M 26.25,8.68" />
        <path id="bluestoneWhiteLogo-bezier15" stroke="none" fill="rgb(255, 255, 255)" d="M 32.49,8.87 L 32.49,9.54 C 32.6,9.54 32.71,9.54 32.82,9.54 32.99,9.54 33.12,9.52 33.21,9.46 33.28,9.4 33.32,9.3 33.32,9.2 33.32,9.01 33.19,8.87 32.9,8.87 L 32.49,8.87 Z M 32.29,8.68 L 32.75,8.68 C 32.95,8.68 33.11,8.69 33.21,8.72 33.41,8.8 33.53,8.98 33.53,9.2 33.53,9.3 33.52,9.36 33.47,9.45 33.37,9.65 33.17,9.73 32.85,9.73 L 33.56,10.65 33.31,10.65 32.6,9.73 32.49,9.73 32.49,10.65 32.29,10.65 32.29,8.68 Z M 32.29,8.68" />
        <path id="bluestoneWhiteLogo-bezier16" stroke="none" fill="rgb(255, 255, 255)" d="M 38.34,8.87 L 38.34,8.68 39.42,8.68 39.42,8.87 38.98,8.87 38.98,10.65 38.78,10.65 38.78,8.87 38.34,8.87 Z M 38.34,8.87" />
        <path id="bluestoneWhiteLogo-bezier17" stroke="none" fill="rgb(255, 255, 255)" d="M 44.24,8.68 L 44.44,8.68 44.44,10.65 44.24,10.65 44.24,8.68 Z M 44.24,8.68" />
        <path id="bluestoneWhiteLogo-bezier18" stroke="none" fill="rgb(255, 255, 255)" d="M 49.46,8.68 L 50.59,8.68 50.59,8.87 49.66,8.87 49.66,9.49 50.59,9.49 50.59,9.68 49.66,9.68 49.66,10.46 50.59,10.46 50.59,10.65 49.46,10.65 49.46,8.68 Z M 49.46,8.68" />
        <path id="bluestoneWhiteLogo-bezier19" stroke="none" fill="rgb(255, 255, 255)" d="M 56.26,9.07 C 56.15,8.93 56.06,8.83 55.89,8.83 55.72,8.83 55.63,8.95 55.63,9.08 55.63,9.19 55.69,9.3 55.8,9.38 56.18,9.66 56.45,9.85 56.45,10.17 56.45,10.45 56.21,10.7 55.89,10.7 55.62,10.7 55.44,10.55 55.3,10.28 L 55.46,10.18 C 55.58,10.4 55.72,10.51 55.88,10.51 56.08,10.51 56.24,10.36 56.24,10.17 56.24,9.95 56.04,9.83 55.59,9.47 55.5,9.39 55.42,9.24 55.42,9.09 55.42,8.82 55.63,8.63 55.9,8.63 56.14,8.63 56.29,8.77 56.42,8.95 L 56.26,9.07 Z M 56.26,9.07" />
        <path id="bluestoneWhiteLogo-bezier20" stroke="none" fill="rgb(255, 255, 255)" d="M 1,6.17 L 0.38,6.17 0.38,1.9 1,1.52 1,6.17 Z M 1,6.17" />
        <path id="bluestoneWhiteLogo-bezier21" stroke="none" fill="rgb(255, 255, 255)" d="M 4.53,6.53 L 5.15,6.53 5.15,0.41 4.53,0.81 4.53,6.53 Z M 4.53,6.53" />
        <path id="bluestoneWhiteLogo-bezier22" stroke="none" fill="rgb(255, 255, 255)" d="M 0.37,6.52 L 1,6.52 1,2.72 0.37,2.72 0.37,6.52 Z M 0.37,6.52" />
        <path id="bluestoneWhiteLogo-bezier23" stroke="none" fill="rgb(255, 255, 255)" d="M 0.4,3.44 L 0.4,4.06 5.13,1.05 5.13,0.42 0.4,3.44 Z M 0.4,3.44" />
        <path id="bluestoneWhiteLogo-bezier24" stroke="none" fill="rgb(255, 255, 255)" d="M 0.4,5.89 L 0.4,6.52 5.13,6.53 5.13,5.91 0.4,5.89 Z M 0.4,5.89" />
        <path id="bluestoneWhiteLogo-bezier25" stroke="none" fill="rgb(255, 255, 255)" d="M 6.51,6.53 L 5.88,6.53 5.88,0.41 6.51,0.81 6.51,6.53 Z M 6.51,6.53" />
        <path id="bluestoneWhiteLogo-bezier26" stroke="none" fill="rgb(255, 255, 255)" d="M 10.66,6.52 L 10.04,6.52 10.04,3.46 10.66,3.46 10.66,6.52 Z M 10.66,6.52" />
        <path id="bluestoneWhiteLogo-bezier27" stroke="none" fill="rgb(255, 255, 255)" d="M 10.64,3.44 L 10.64,4.06 5.91,1.05 5.91,0.42 10.64,3.44 Z M 10.64,3.44" />
        <path id="bluestoneWhiteLogo-bezier28" stroke="none" fill="rgb(255, 255, 255)" d="M 10.64,5.89 L 10.66,6.52 5.93,6.53 5.91,5.91 10.64,5.89 Z M 10.64,5.89" />
        <path id="bluestoneWhiteLogo-bezier29" stroke="none" fill="rgb(255, 255, 255)" d="M 6.5,7.6 L 5.87,7.6 5.87,3.46 6.5,3.46 6.5,7.6 Z M 6.5,7.6" />
    </g>
</svg>
